!!!SOCIAL_FUNCTION:	war songs
!!!PDT:	1939
!!!OTL: No_102_Makah_War_Song.krn
!!!LANG: Non-Tone
!!!LING_GROUP: Wakashan
!!!REG: Pacific Northwest
**kern
*staff1
=1-
*clefF4
*k[b-e-]
*M3/4
4B-\
16A\LK
8.G\J
8.G\L
16F#\Jk
=2||
*M2/4
4.G\
8G\
=3
4..G\
16G\
=4
8.G\L
16G\Jk
4G\
=5
8G\L
8D\J
4D\
=6
4D\
8r
8D\
=7
4D\
4G\
=8||
*M3/4
4G\
8.G\L
16D\Jk
8.D\L
16D\Jk
=9||
*M2/4
[2D\
=10
4D\]
4r
=11||
*M3/4
4D\
8.D\L
16D\Jk
8.D\L
16D\Jk
=12||
*M2/4
(4..D\
16G\)
=13
4G\
8r
16r
16G\
=14
=
8.A\L
16A\Jk
4A\
=15
8A\L
8G\J
8.D\L
16G\Jk
=16
4..G\
16G\
=17
4G\
8r
16r
16G\
=18
8.G\L
16G\Jk
4G\
=19
8G\L
8D\J
8.D\L
16D\Jk
=20
4D\
8r
16r
16D\
=21
4D\
4G\
=22||
*M3/4
4G\
8.G\L
16D\Jk
8.D/L
16C#/Jk
=23||
*M2/4
[2D\
=24
4D\]
4r
=25||
*M3/4
4D\
8.D\L
16D\Jk
8.D\L
16D\Jk
=26||
*M2/4
2D\
=27
4G\
8r
16r
16G\
=28:|!
*M2/4
2D\
=29
4G\
4r
==
*-
